src/img/icons/view-all.svg

<svg width="32" height="32" viewBox="0 0 32 32" fill="none" xmlns="http://www.w3.org/2000/svg">
<path d="M17.783 17.0925L15.515 19.3605C15.3374 19.5381 15.251 19.7507 15.2556 19.9983C15.2603 20.2458 15.3514 20.4584 15.529 20.636C15.7066 20.8136 15.9224 20.9024 16.1763 20.9024C16.43 20.9024 16.6441 20.8136 16.8185 20.636L20.4802 16.9743C20.7099 16.7444 20.8247 16.4752 20.8247 16.1667C20.8247 15.8582 20.7099 15.589 20.4802 15.3591L16.8045 11.6834C16.6269 11.5058 16.4143 11.417 16.1667 11.417C15.9192 11.417 15.7066 11.5058 15.529 11.6834C15.3514 11.8609 15.2626 12.0766 15.2626 12.3303C15.2626 12.584 15.3514 12.7982 15.529 12.9728L17.783 15.2408H11.7457C11.4792 15.2408 11.2583 15.3285 11.0829 15.5039C10.9075 15.6795 10.8199 15.9006 10.8199 16.1671C10.8199 16.4338 10.9075 16.6547 11.0829 16.8298C11.2583 17.005 11.4792 17.0925 11.7457 17.0925H17.783ZM16.1693 30.1667C14.243 30.1667 12.4295 29.7992 10.7289 29.0644C9.02822 28.3295 7.54361 27.3281 6.27501 26.0603C5.00666 24.7922 4.0048 23.3082 3.26943 21.6083C2.53431 19.9084 2.16675 18.0954 2.16675 16.1693C2.16675 14.2328 2.53419 12.4127 3.26906 10.7089C4.00394 9.00507 5.00531 7.52304 6.27317 6.26279C7.54127 5.00255 9.02527 4.00474 10.7252 3.26937C12.4251 2.53425 14.2381 2.16669 16.1642 2.16669C18.1006 2.16669 19.9207 2.53412 21.6245 3.269C23.3284 4.00388 24.8104 5.0012 26.0706 6.26095C27.3309 7.5207 28.3287 9.00213 29.0641 10.7052C29.7992 12.4083 30.1667 14.2279 30.1667 16.1641C30.1667 18.0905 29.7993 19.9039 29.0644 21.6046C28.3296 23.3052 27.3322 24.7898 26.0725 26.0584C24.8127 27.3268 23.3313 28.3286 21.6282 29.064C19.9251 29.7991 18.1055 30.1667 16.1693 30.1667ZM16.1667 28.315C19.5511 28.315 22.4219 27.1338 24.7793 24.7715C27.1365 22.4092 28.3151 19.5409 28.3151 16.1667C28.3151 12.7824 27.1365 9.91151 24.7793 7.55411C22.4219 5.19695 19.5511 4.01837 16.1667 4.01837C12.7925 4.01837 9.92422 5.19695 7.56191 7.55411C5.19959 9.91151 4.01843 12.7824 4.01843 16.1667C4.01843 19.5409 5.19959 22.4092 7.56191 24.7715C9.92422 27.1338 12.7925 28.315 16.1667 28.315Z" fill="#131212"/>
</svg>

<svg xmlns="http://www.w3.org/2000/svg" viewBox="0 0 32 32">
  <path fill="currentColor" d="m17.783 17.093-2.268 2.267a.846.846 0 0 0-.26.638c.005.248.096.46.274.638a.881.881 0 0 0 .647.266.865.865 0 0 0 .643-.266l3.661-3.662c.23-.23.345-.499.345-.807 0-.309-.115-.578-.345-.808l-3.675-3.676a.87.87 0 0 0-.638-.266.87.87 0 0 0-.638.266.88.88 0 0 0-.266.647c0 .254.088.468.266.643l2.254 2.268h-6.037a.899.899 0 0 0-.926.926.897.897 0 0 0 .926.925h6.037Zm-1.614 13.074c-1.926 0-3.74-.368-5.44-1.103a14.204 14.204 0 0 1-4.454-3.004 14.202 14.202 0 0 1-3.006-4.452c-.735-1.7-1.102-3.513-1.102-5.439 0-1.936.367-3.756 1.102-5.46a14.038 14.038 0 0 1 3.004-4.446 14.307 14.307 0 0 1 4.452-2.994c1.7-.735 3.513-1.102 5.44-1.102 1.936 0 3.756.367 5.46 1.102a14.14 14.14 0 0 1 4.446 2.992 14.14 14.14 0 0 1 2.993 4.444c.735 1.703 1.103 3.523 1.103 5.46 0 1.925-.368 3.739-1.103 5.44a14.308 14.308 0 0 1-2.991 4.453 14.037 14.037 0 0 1-4.445 3.006c-1.703.735-3.523 1.103-5.459 1.103Zm-.002-1.852c3.384 0 6.255-1.181 8.612-3.544 2.358-2.362 3.536-5.23 3.536-8.604 0-3.385-1.178-6.255-3.536-8.613-2.357-2.357-5.228-3.536-8.612-3.536-3.375 0-6.243 1.179-8.605 3.536-2.362 2.358-3.544 5.228-3.544 8.613 0 3.374 1.182 6.242 3.544 8.604 2.362 2.363 5.23 3.544 8.605 3.544Z"/>
</svg>
